brandFactory_export/1.Light/(2)Cuidar_1Light.svg

<?xml version="1.0" encoding="UTF-8"?>
<svg width="24px" height="24px" viewBox="0 0 24 24" version="1.1" xmlns="http://www.w3.org/2000/svg" xmlns:xlink="http://www.w3.org/1999/xlink">
    <title>1.Light/(2)Cuidar_1Light</title>
    <g id="Symbols" stroke="none" stroke-width="1" fill="none" fill-rule="evenodd">
        <g id="1.Light/(2)Cuidar_1Light" fill="#5CB615" fill-rule="nonzero">
            <path d="M17.1462185,19.3042017 C17.6,19.0084034 17.6,18.8168067 17.4184874,18.4705882 C17.2369748,18.1445378 16.8840336,18.0134454 16.5714286,18.1243697 L12.9008403,19.405042 C12.8605042,19.4151261 12.8201681,19.4151261 12.7798319,19.4151261 C12.5176471,19.5865546 12.2151261,19.6907563 11.902521,19.6907563 L7.31764706,19.6907563 C7.03529412,19.6907563 6.81344538,19.4655462 6.81344538,19.1831933 C6.81344538,18.897479 7.03529412,18.6756303 7.31764706,18.6756303 L11.902521,18.6756303 C12.2352941,18.6756303 12.5781513,18.3294118 12.5781513,17.9932773 C12.5781513,17.687395 12.3865546,17.3714286 12.0336134,17.3613445 L11.7714286,17.3714286 C11.0252101,17.3815126 9.44201681,17.4218487 7.9697479,16.487395 C7.94957983,16.4773109 7.15294118,16.0302521 4.63529412,15.9697479 L4.63529412,20.2420168 L9.02857143,22.3663866 C9.3512605,22.5579832 9.74453782,22.6420168 10.2184874,22.6420168 C10.6218487,22.6420168 10.9647059,22.5815126 11.2369748,22.4605042 C11.2605042,22.4369748 15.7546218,20.1882353 17.1462185,19.3042017 L17.1462185,19.3042017 Z M3.6302521,20.4941176 L3.6302521,15.805042 C3.6302521,15.5092437 3.38823529,15.2672269 3.09579832,15.2672269 L1.57310924,15.2672269 C1.28067227,15.2672269 1.03865546,15.512605 1.03865546,15.805042 L1.03865546,21.5731092 C1.03865546,21.8689076 1.28067227,22.1109244 1.57310924,22.1109244 L3.09579832,22.1109244 C3.38823529,22.1109244 3.6302521,21.8655462 3.6302521,21.5731092 L3.6302521,20.5747899 C3.62016807,20.5546218 3.62016807,20.5243697 3.6302521,20.4941176 L3.6302521,20.4941176 Z M18.2756303,17.9193277 C18.6285714,18.6016807 18.7697479,19.4655462 17.6907563,20.1579832 C16.2487395,21.0722689 11.8554622,23.2806723 11.6638655,23.3714286 C11.2504202,23.5630252 10.7663866,23.6571429 10.2218487,23.6571429 C9.56638655,23.6571429 9.01176471,23.5260504 8.55798319,23.2605042 L4.63865546,21.3579832 L4.63865546,21.5731092 C4.63865546,22.4369748 3.94285714,23.1294118 3.09579832,23.1294118 L1.57310924,23.1294118 C0.72605042,23.1294118 0.0302521008,22.4369748 0.0302521008,21.5731092 L0.0302521008,15.805042 C0.0302521008,14.9411765 0.72605042,14.2487395 1.57310924,14.2487395 L3.09579832,14.2487395 C3.6302521,14.2487395 4.10420168,14.5243697 4.37310924,14.9512605 C7.45882353,14.9815126 8.42689076,15.5731092 8.52436975,15.6436975 C9.72436975,16.3966387 11.0453782,16.3663866 11.7478992,16.3563025 C11.8689076,16.3462185 11.9697479,16.3462185 12.0403361,16.3462185 C12.907563,16.3663866 13.5831933,17.0890756 13.5831933,17.9932773 C13.5831933,18.0235294 13.5731092,18.0638655 13.5731092,18.0941176 L16.2352941,17.1596639 C17.0252101,16.8840336 17.8823529,17.210084 18.2756303,17.9193277 L18.2756303,17.9193277 Z M2.92436975,16.8134454 C2.92436975,17.1798319 2.65210084,17.4453782 2.28907563,17.4453782 C1.93613445,17.4453782 1.66386555,17.1798319 1.66386555,16.8134454 C1.66386555,16.4470588 1.93613445,16.1815126 2.28907563,16.1815126 C2.65210084,16.1815126 2.92436975,16.4470588 2.92436975,16.8134454 Z M22.6487395,7.89243697 L22.6487395,2.11764706 C22.6487395,1.82184874 22.4067227,1.57983193 22.1142857,1.57983193 L20.5915966,1.57983193 C20.2991597,1.57983193 20.0571429,1.82521008 20.0571429,2.11764706 L20.0571429,3.11596639 C20.0571429,3.14621849 20.0672269,3.16638655 20.0571429,3.19663866 L20.0571429,7.89579832 C20.0571429,8.19159664 20.2991597,8.43361345 20.5915966,8.43361345 L22.1142857,8.43361345 C22.4067227,8.43361345 22.6487395,8.18823529 22.6487395,7.89243697 Z M19.0521008,7.7210084 L19.0521008,3.45882353 L14.6554622,1.32436975 C14.3327731,1.14285714 13.9394958,1.0487395 13.4655462,1.0487395 C13.0621849,1.0487395 12.7193277,1.1092437 12.4470588,1.24033613 C12.4168067,1.25042017 7.92941176,3.5092437 6.54117647,4.39327731 C6.08739496,4.6789916 6.08739496,4.87058824 6.26890756,5.22689076 C6.45042017,5.55294118 6.80336134,5.67394958 7.11596639,5.57310924 L10.7831933,4.29243697 C10.8235294,4.27226891 10.8739496,4.27226891 10.9243697,4.27226891 C11.1764706,4.11092437 11.4689076,3.99663866 11.7815126,3.99663866 L11.7815126,4.00672269 L16.3697479,4.00672269 C16.6521008,4.00672269 16.8739496,4.23193277 16.8739496,4.51428571 C16.8739496,4.78991597 16.6521008,5.02184874 16.3697479,5.02184874 L11.7848739,5.02184874 L11.7848739,5.01176471 C11.4521008,5.01176471 11.1092437,5.35798319 11.1092437,5.69411765 C11.1092437,6.01008403 11.3008403,6.32605042 11.6537815,6.32605042 C11.7243697,6.33613445 11.8151261,6.32605042 11.9159664,6.32605042 C12.6722689,6.30588235 14.2420168,6.27563025 15.7142857,7.2 C15.7344538,7.21008403 16.5310924,7.67058824 19.0521008,7.7210084 Z M22.1142857,0.561344538 C22.9613445,0.561344538 23.6571429,1.26386555 23.6571429,2.11764706 L23.6571429,7.89579832 C23.6571429,8.74957983 22.9613445,9.45210084 22.1142857,9.45210084 L20.5915966,9.45210084 C20.0571429,9.45210084 19.5831933,9.16638655 19.3109244,8.74957983 C16.2285714,8.71932773 15.2605042,8.12773109 15.1596639,8.05714286 C13.9630252,7.29411765 12.6386555,7.32436975 11.9361345,7.34453782 L11.6336134,7.34453782 C10.7764706,7.33445378 10.1042017,6.61176471 10.1042017,5.69747899 C10.1042017,5.66722689 10.1142857,5.63697479 10.1142857,5.60672269 L7.45210084,6.53109244 C7.2605042,6.59159664 7.06890756,6.63193277 6.87731092,6.63193277 C6.28235294,6.63193277 5.71764706,6.31596639 5.41512605,5.76806723 C5.06218487,5.08571429 4.9210084,4.22184874 6,3.52941176 C7.44201681,2.61512605 11.8352941,0.406722689 12.0168067,0.315966387 C12.9445378,-0.100840336 14.3058824,-0.0504201681 15.1294118,0.426890756 L19.0521008,2.32941176 L19.0521008,2.11428571 C19.0521008,1.2605042 19.7478992,0.557983193 20.594958,0.557983193 L22.1142857,0.557983193 L22.1142857,0.561344538 Z M21.9932773,6.87731092 C21.9932773,7.24369748 21.7210084,7.5092437 21.3680672,7.5092437 C21.005042,7.5092437 20.7428571,7.24369748 20.7428571,6.87731092 C20.7428571,6.5210084 21.005042,6.24537815 21.3680672,6.24537815 C21.7210084,6.24537815 21.9932773,6.5210084 21.9932773,6.87731092 Z M13.8991597,10.6689076 C13.9394958,10.497479 14.010084,10.087395 13.8184874,9.91596639 C13.7277311,9.84537815 13.5865546,9.79495798 13.4352941,9.78487395 L13.3848739,9.78487395 C13.1428571,9.78487395 12.9714286,9.85546218 12.7798319,9.95630252 C12.6588235,10.0168067 12.5378151,10.097479 12.3966387,10.1815126 C12.3966387,10.1815126 12.3865546,10.1815126 12.3663866,10.1915966 C12.3159664,10.2117647 12.205042,10.2621849 12.1546218,10.2823529 C12.0638655,10.312605 11.902521,10.3327731 11.8521008,10.3327731 L11.8319328,10.3327731 C11.6403361,10.3327731 11.4588235,10.2823529 11.287395,10.1915966 C11.1361345,10.1008403 11.005042,10.0201681 10.8840336,9.95630252 C10.6823529,9.84537815 10.4806723,9.78487395 10.2789916,9.78487395 C10.0773109,9.79495798 9.93613445,9.84537815 9.85546218,9.91596639 C9.65378151,10.087395 9.72436975,10.4941176 9.76470588,10.6689076 C9.90588235,11.2470588 10.1781513,11.8588235 10.5714286,12.4806723 C10.9042017,12.9983193 11.1563025,13.3142857 11.610084,13.7915966 C11.6907563,13.8722689 11.7915966,13.9630252 11.8420168,14.0033613 L11.8521008,14.0033613 C11.8823529,13.9630252 11.9529412,13.892437 12.0336134,13.8218487 L12.0336134,13.8117647 L12.0638655,13.7815126 C12.5176471,13.3142857 12.7596639,12.9983193 13.092437,12.4806723 C13.4991597,11.8487395 13.7680672,11.2403361 13.8991597,10.6689076 L13.8991597,10.6689076 Z M14.4739496,9.14285714 C14.9176471,9.52941176 15.0588235,10.1512605 14.887395,10.9008403 C14.7159664,11.5932773 14.4033613,12.3058824 13.9394958,13.0252101 C13.5764706,13.5932773 13.2840336,13.9697479 12.789916,14.4806723 C12.789916,14.4907563 12.7798319,14.4907563 12.7798319,14.5008403 C12.7294118,14.5512605 12.5579832,14.7260504 12.4168067,14.8268908 C12.2957983,14.9176471 12.1546218,14.9781513 12.0134454,15.0084034 C11.9731092,15.0184874 11.9327731,15.0285714 11.8823529,15.0285714 L11.7815126,15.0285714 C11.7411765,15.0285714 11.7008403,15.0184874 11.6605042,15.0084034 C11.5193277,14.9781513 11.3781513,14.9176471 11.2571429,14.8268908 C11.1058824,14.7260504 10.9344538,14.5512605 10.8941176,14.5008403 C10.389916,13.9731092 10.097479,13.6067227 9.72436975,13.0252101 C9.27058824,12.302521 8.94789916,11.589916 8.78655462,10.9008403 C8.60504202,10.1478992 8.75630252,9.52605042 9.2,9.14285714 C9.45210084,8.91764706 9.80504202,8.78655462 10.1781513,8.76638655 L10.2789916,8.76638655 C10.6521008,8.76638655 11.0252101,8.86722689 11.3781513,9.06218487 C11.5092437,9.13277311 11.6403361,9.21344538 11.7915966,9.30756303 C11.8016807,9.30756303 11.8218487,9.31764706 11.8319328,9.31764706 C11.8521008,9.31764706 11.8722689,9.30756303 11.8823529,9.30756303 C12.0235294,9.21680672 12.1647059,9.13613445 12.2957983,9.06218487 C12.6386555,8.87058824 13.0218487,8.76638655 13.3848739,8.76638655 L13.4857143,8.76638655 C13.8689076,8.78655462 14.2151261,8.9210084 14.4739496,9.14285714 L14.4739496,9.14285714 Z" id="(2)Cuidar_1Light"></path>
        </g>
    </g>
</svg>

<svg width="24" height="24" viewBox="0 0 24 24" xmlns="http://www.w3.org/2000/svg"><path d="M17.146 19.304c.454-.296.454-.487.272-.833-.181-.326-.534-.458-.847-.347l-3.67 1.281c-.04.01-.08.01-.121.01a1.611 1.611 0 01-.877.276H7.318a.502.502 0 01-.505-.508.5.5 0 01.505-.507h4.585c.332 0 .675-.347.675-.683 0-.306-.191-.622-.544-.632l-.263.01c-.746.01-2.329.05-3.801-.884-.02-.01-.817-.457-3.335-.517v4.272l4.394 2.124c.322.192.716.276 1.19.276.403 0 .746-.06 1.018-.181.024-.024 4.518-2.273 5.91-3.157zM3.63 20.494v-4.689a.539.539 0 00-.534-.538H1.573a.54.54 0 00-.534.538v5.768c0 .296.242.538.534.538h1.523a.54.54 0 00.534-.538v-.998c-.01-.02-.01-.05 0-.08zm14.646-2.575c.353.683.494 1.547-.585 2.239-1.442.914-5.836 3.123-6.027 3.213-.414.192-.898.286-1.442.286-.656 0-1.21-.13-1.664-.396l-3.92-1.903v.215a1.55 1.55 0 01-1.542 1.556H1.573A1.55 1.55 0 01.03 21.573v-5.768a1.55 1.55 0 011.543-1.556h1.523c.534 0 1.008.275 1.277.702 3.086.03 4.054.622 4.151.693 1.2.753 2.521.722 3.224.712.12-.01.222-.01.292-.01.868.02 1.543.743 1.543 1.647 0 .03-.01.07-.01.101l2.662-.934c.79-.276 1.647.05 2.04.76zM2.924 16.813a.616.616 0 01-.635.632.613.613 0 01-.625-.632c0-.366.272-.631.625-.631.363 0 .635.265.635.631zm19.725-8.92V2.117a.539.539 0 00-.535-.538h-1.522a.54.54 0 00-.535.538v.998c0 .03.01.05 0 .08v4.7c0 .296.242.538.535.538h1.522a.542.542 0 00.535-.542zm-3.597-.172V3.459l-4.397-2.135c-.322-.181-.716-.275-1.19-.275-.403 0-.746.06-1.018.191-.03.01-4.518 2.27-5.906 3.153-.454.286-.454.478-.272.834a.71.71 0 00.847.346l3.667-1.28c.04-.02.09-.02.141-.02.252-.162.545-.276.858-.276v.01h4.588c.282 0 .504.225.504.507a.506.506 0 01-.504.508h-4.585v-.01c-.333 0-.676.346-.676.682 0 .316.192.632.545.632.07.01.161 0 .262 0 .756-.02 2.326-.05 3.798.874.02.01.817.47 3.338.521zm3.062-7.16c.847 0 1.543.703 1.543 1.557v5.778c0 .854-.696 1.556-1.543 1.556h-1.522a1.539 1.539 0 01-1.281-.702c-3.082-.03-4.05-.622-4.151-.693-1.197-.763-2.521-.733-3.224-.712h-.302c-.858-.01-1.53-.733-1.53-1.648 0-.03.01-.06.01-.09l-2.662.924c-.191.06-.383.1-.575.1-.595 0-1.16-.315-1.462-.863-.353-.682-.494-1.546.585-2.239C7.442 2.615 11.835.407 12.017.316c.928-.417 2.289-.366 3.112.11l3.923 1.903v-.215c0-.853.696-1.556 1.543-1.556h1.52v.003zm-.12 6.316a.613.613 0 01-.626.632.607.607 0 01-.625-.632c0-.356.262-.632.625-.632a.62.62 0 01.625.632zm-8.095 3.792c.04-.172.111-.582-.08-.753a.723.723 0 00-.384-.131h-.05c-.242 0-.414.07-.605.171-.121.06-.242.141-.383.226 0 0-.01 0-.03.01-.051.02-.162.07-.212.09-.091.03-.252.05-.303.05h-.02c-.192 0-.373-.05-.545-.14-.15-.091-.282-.172-.403-.236a1.254 1.254 0 00-.605-.171c-.202.01-.343.06-.424.131-.201.171-.13.578-.09.753.14.578.413 1.19.806 1.812.333.517.585.833 1.04 1.31.08.081.18.172.231.212h.01c.03-.04.1-.11.182-.181v-.01l.03-.03a7.286 7.286 0 001.028-1.301c.407-.632.676-1.24.807-1.812zm.575-1.526c.444.386.585 1.008.413 1.758-.171.692-.484 1.405-.948 2.124a8.316 8.316 0 01-1.15 1.456c0 .01-.01.01-.01.02-.05.05-.221.225-.362.326a1.04 1.04 0 01-.404.181c-.04.01-.08.02-.13.02h-.101c-.04 0-.081-.01-.121-.02a1.04 1.04 0 01-.404-.181 2.106 2.106 0 01-.363-.326 8.705 8.705 0 01-1.17-1.476c-.453-.722-.776-1.435-.937-2.124-.182-.753-.03-1.375.413-1.758.252-.225.605-.356.978-.377h.101c.373 0 .746.101 1.1.296.13.07.261.151.413.246.01 0 .03.01.04.01.02 0 .04-.01.05-.01.142-.091.283-.172.414-.246a2.267 2.267 0 011.089-.296h.1c.384.02.73.155.989.377z" fill="#5CB615" fill-rule="nonzero"/></svg>
